static/img/kroki/24334b6afe82925458646684f31f895a.svg

<?xml version="1.0" encoding="us-ascii" standalone="no"?><svg xmlns="http://www.w3.org/2000/svg" xmlns:xlink="http://www.w3.org/1999/xlink" contentStyleType="text/css" height="977px" preserveAspectRatio="none" style="width:298px;height:977px;" version="1.1" viewBox="0 0 298 977" width="298px" zoomAndPan="magnify"><defs/><g><!--class aws_backup_vault--><g id="elem_aws_backup_vault"><rect codeLine="23" fill="#3D176E" height="337.0547" id="aws_backup_vault" rx="2.5" ry="2.5" style="stroke:#000D19;stroke-width:0.5;" width="284" x="7" y="633.85"/><ellipse cx="63.25" cy="653.7445" fill="#ADD1B2" rx="11" ry="11" style="stroke:#181818;stroke-width:1.0;"/><path d="M66.2188,659.3852 Q65.6406,659.682 65,659.8227 Q64.3594,659.9789 63.6563,659.9789 Q61.1563,659.9789 59.8281,658.3383 Q58.5156,656.682 58.5156,653.557 Q58.5156,650.432 59.8281,648.7758 Q61.1563,647.1195 63.6563,647.1195 Q64.3594,647.1195 65,647.2758 Q65.6563,647.432 66.2188,647.7289 L66.2188,650.4477 Q65.5938,649.8695 65,649.6039 Q64.4063,649.3227 63.7813,649.3227 Q62.4375,649.3227 61.75,650.4008 Q61.0625,651.4633 61.0625,653.557 Q61.0625,655.6508 61.75,656.7289 Q62.4375,657.7914 63.7813,657.7914 Q64.4063,657.7914 65,657.5258 Q65.5938,657.2445 66.2188,656.6664 L66.2188,659.3852 Z " fill="#000000"/><text fill="#D9B8FF" font-family="Helvetica" font-size="17" lengthAdjust="spacing" textLength="153" x="88.75" y="659.6298">aws_backup_vault</text><line style="stroke:#000D19;stroke-width:0.5;" x1="8" x2="290" y1="673.6391" y2="673.6391"/><text fill="#D9B8FF" font-family="sans-serif" font-size="14" font-weight="bold" lengthAdjust="spacing" textLength="135" x="18" y="695.6342">backup_vault_arn</text><text fill="#D9B8FF" font-family="sans-serif" font-size="14" lengthAdjust="spacing" textLength="48" x="153" y="695.6342">: string</text><text fill="#D9B8FF" font-family="sans-serif" font-size="14" font-weight="bold" lengthAdjust="spacing" textLength="152" x="18" y="721.9311">backup_vault_name</text><text fill="#D9B8FF" font-family="sans-serif" font-size="14" lengthAdjust="spacing" textLength="48" x="170" y="721.9311">: string</text><text fill="#D9B8FF" font-family="sans-serif" font-size="14" font-weight="bold" lengthAdjust="spacing" textLength="107" x="18" y="748.2279">creation_date</text><text fill="#D9B8FF" font-family="sans-serif" font-size="14" lengthAdjust="spacing" textLength="70" x="125" y="748.2279">: datetime</text><text fill="#D9B8FF" font-family="sans-serif" font-size="14" font-weight="bold" lengthAdjust="spacing" textLength="148" x="18" y="774.5248">creator_request_id</text><text fill="#D9B8FF" font-family="sans-serif" font-size="14" lengthAdjust="spacing" textLength="48" x="166" y="774.5248">: string</text><text fill="#D9B8FF" font-family="sans-serif" font-size="14" font-weight="bold" lengthAdjust="spacing" textLength="153" x="18" y="800.8217">encryption_key_arn</text><text fill="#D9B8FF" font-family="sans-serif" font-size="14" lengthAdjust="spacing" textLength="48" x="171" y="800.8217">: string</text><text fill="#D9B8FF" font-family="sans-serif" font-size="14" font-weight="bold" lengthAdjust="spacing" textLength="74" x="18" y="827.1186">lock_date</text><text fill="#D9B8FF" font-family="sans-serif" font-size="14" lengthAdjust="spacing" textLength="70" x="92" y="827.1186">: datetime</text><text fill="#D9B8FF" font-family="sans-serif" font-size="14" font-weight="bold" lengthAdjust="spacing" textLength="52" x="18" y="853.4154">locked</text><text fill="#D9B8FF" font-family="sans-serif" font-size="14" lengthAdjust="spacing" textLength="65" x="70" y="853.4154">: boolean</text><text fill="#D9B8FF" font-family="sans-serif" font-size="14" font-weight="bold" lengthAdjust="spacing" textLength="156" x="18" y="879.7123">max_retention_days</text><text fill="#D9B8FF" font-family="sans-serif" font-size="14" lengthAdjust="spacing" textLength="44" x="174" y="879.7123">: int64</text><text fill="#D9B8FF" font-family="sans-serif" font-size="14" font-weight="bold" lengthAdjust="spacing" textLength="152" x="18" y="906.0092">min_retention_days</text><text fill="#D9B8FF" font-family="sans-serif" font-size="14" lengthAdjust="spacing" textLength="44" x="170" y="906.0092">: int64</text><text fill="#D9B8FF" font-family="sans-serif" font-size="14" font-weight="bold" lengthAdjust="spacing" textLength="218" x="18" y="932.3061">number_of_recovery_points</text><text fill="#D9B8FF" font-family="sans-serif" font-size="14" lengthAdjust="spacing" textLength="44" x="236" y="932.3061">: int64</text><text fill="#D9B8FF" font-family="sans-serif" font-size="14" font-weight="bold" lengthAdjust="spacing" textLength="91" x="18" y="958.6029">vault_policy</text><text fill="#D9B8FF" font-family="sans-serif" font-size="14" lengthAdjust="spacing" textLength="156" x="109" y="958.6029">: dictionary[string, any]</text></g><!--class aws_resource--><g id="elem_aws_resource"><rect codeLine="36" fill="#3D176E" height="74.0859" id="aws_resource" rx="2.5" ry="2.5" style="stroke:#000D19;stroke-width:0.5;" width="155" x="71.5" y="438.76"/><ellipse cx="86.5" cy="458.6545" fill="#ADD1B2" rx="11" ry="11" style="stroke:#181818;stroke-width:1.0;"/><path d="M89.4688,464.2952 Q88.8906,464.592 88.25,464.7327 Q87.6094,464.8889 86.9063,464.8889 Q84.4063,464.8889 83.0781,463.2483 Q81.7656,461.592 81.7656,458.467 Q81.7656,455.342 83.0781,453.6858 Q84.4063,452.0295 86.9063,452.0295 Q87.6094,452.0295 88.25,452.1858 Q88.9063,452.342 89.4688,452.6389 L89.4688,455.3577 Q88.8438,454.7795 88.25,454.5139 Q87.6563,454.2327 87.0313,454.2327 Q85.6875,454.2327 85,455.3108 Q84.3125,456.3733 84.3125,458.467 Q84.3125,460.5608 85,461.6389 Q85.6875,462.7014 87.0313,462.7014 Q87.6563,462.7014 88.25,462.4358 Q88.8438,462.1545 89.4688,461.5764 L89.4688,464.2952 Z " fill="#000000"/><text fill="#D9B8FF" font-family="Helvetica" font-size="17" lengthAdjust="spacing" textLength="113" x="105.5" y="464.5398">aws_resource</text><line style="stroke:#000D19;stroke-width:0.5;" x1="72.5" x2="225.5" y1="478.5491" y2="478.5491"/><text fill="#D9B8FF" font-family="sans-serif" font-size="14" font-weight="bold" lengthAdjust="spacing" textLength="26" x="82.5" y="500.5442">arn</text><text fill="#D9B8FF" font-family="sans-serif" font-size="14" lengthAdjust="spacing" textLength="48" x="108.5" y="500.5442">: string</text></g><!--class resource--><g id="elem_resource"><rect codeLine="39" fill="#3D176E" height="310.7578" id="resource" rx="2.5" ry="2.5" style="stroke:#000D19;stroke-width:0.5;" width="227" x="35.5" y="7"/><ellipse cx="104.25" cy="26.8945" fill="#ADD1B2" rx="11" ry="11" style="stroke:#181818;stroke-width:1.0;"/><path d="M107.2188,32.5352 Q106.6406,32.832 106,32.9727 Q105.3594,33.1289 104.6563,33.1289 Q102.1563,33.1289 100.8281,31.4883 Q99.5156,29.832 99.5156,26.707 Q99.5156,23.582 100.8281,21.9258 Q102.1563,20.2695 104.6563,20.2695 Q105.3594,20.2695 106,20.4258 Q106.6563,20.582 107.2188,20.8789 L107.2188,23.5977 Q106.5938,23.0195 106,22.7539 Q105.4063,22.4727 104.7813,22.4727 Q103.4375,22.4727 102.75,23.5508 Q102.0625,24.6133 102.0625,26.707 Q102.0625,28.8008 102.75,29.8789 Q103.4375,30.9414 104.7813,30.9414 Q105.4063,30.9414 106,30.6758 Q106.5938,30.3945 107.2188,29.8164 L107.2188,32.5352 Z " fill="#000000"/><text fill="#D9B8FF" font-family="Helvetica" font-size="17" lengthAdjust="spacing" textLength="71" x="129.75" y="32.7798">resource</text><line style="stroke:#000D19;stroke-width:0.5;" x1="36.5" x2="261.5" y1="46.7891" y2="46.7891"/><text fill="#D9B8FF" font-family="sans-serif" font-size="14" font-weight="bold" lengthAdjust="spacing" textLength="29" x="46.5" y="68.7842">age</text><text fill="#D9B8FF" font-family="sans-serif" font-size="14" lengthAdjust="spacing" textLength="66" x="75.5" y="68.7842">: duration</text><text fill="#D9B8FF" font-family="sans-serif" font-size="14" font-weight="bold" lengthAdjust="spacing" textLength="43" x="46.5" y="95.0811">atime</text><text fill="#D9B8FF" font-family="sans-serif" font-size="14" lengthAdjust="spacing" textLength="70" x="89.5" y="95.0811">: datetime</text><text fill="#D9B8FF" font-family="sans-serif" font-size="14" font-weight="bold" lengthAdjust="spacing" textLength="43" x="46.5" y="121.3779">ctime</text><text fill="#D9B8FF" font-family="sans-serif" font-size="14" lengthAdjust="spacing" textLength="70" x="89.5" y="121.3779">: datetime</text><text fill="#D9B8FF" font-family="sans-serif" font-size="14" font-weight="bold" lengthAdjust="spacing" textLength="14" x="46.5" y="147.6748">id</text><text fill="#D9B8FF" font-family="sans-serif" font-size="14" lengthAdjust="spacing" textLength="48" x="60.5" y="147.6748">: string</text><text fill="#D9B8FF" font-family="sans-serif" font-size="14" font-weight="bold" lengthAdjust="spacing" textLength="33" x="46.5" y="173.9717">kind</text><text fill="#D9B8FF" font-family="sans-serif" font-size="14" lengthAdjust="spacing" textLength="48" x="79.5" y="173.9717">: string</text><text fill="#D9B8FF" font-family="sans-serif" font-size="14" font-weight="bold" lengthAdjust="spacing" textLength="90" x="46.5" y="200.2686">last_access</text><text fill="#D9B8FF" font-family="sans-serif" font-size="14" lengthAdjust="spacing" textLength="66" x="136.5" y="200.2686">: duration</text><text fill="#D9B8FF" font-family="sans-serif" font-size="14" font-weight="bold" lengthAdjust="spacing" textLength="90" x="46.5" y="226.5654">last_update</text><text fill="#D9B8FF" font-family="sans-serif" font-size="14" lengthAdjust="spacing" textLength="66" x="136.5" y="226.5654">: duration</text><text fill="#D9B8FF" font-family="sans-serif" font-size="14" font-weight="bold" lengthAdjust="spacing" textLength="48" x="46.5" y="252.8623">mtime</text><text fill="#D9B8FF" font-family="sans-serif" font-size="14" lengthAdjust="spacing" textLength="70" x="94.5" y="252.8623">: datetime</text><text fill="#D9B8FF" font-family="sans-serif" font-size="14" font-weight="bold" lengthAdjust="spacing" textLength="43" x="46.5" y="279.1592">name</text><text fill="#D9B8FF" font-family="sans-serif" font-size="14" lengthAdjust="spacing" textLength="48" x="89.5" y="279.1592">: string</text><text fill="#D9B8FF" font-family="sans-serif" font-size="14" font-weight="bold" lengthAdjust="spacing" textLength="34" x="46.5" y="305.4561">tags</text><text fill="#D9B8FF" font-family="sans-serif" font-size="14" lengthAdjust="spacing" textLength="171" x="80.5" y="305.4561">: dictionary[string, string]</text></g><!--reverse link aws_resource to aws_backup_vault--><g id="link_aws_resource_aws_backup_vault"><path codeLine="51" d="M149,531.09 C149,561.11 149,588.08 149,633.62 " fill="none" id="aws_resource-backto-aws_backup_vault" style="stroke:#FFAF37;stroke-width:2.0;"/><polygon fill="none" points="149,513.09,143,531.09,155,531.09,149,513.09" style="stroke:#FFAF37;stroke-width:2.0;"/></g><!--reverse link resource to aws_resource--><g id="link_resource_aws_resource"><path codeLine="52" d="M149,336.18 C149,381.21 149,408.35 149,438.52 " fill="none" id="resource-backto-aws_resource" style="stroke:#FFAF37;stroke-width:2.0;"/><polygon fill="none" points="149,318.18,143,336.18,155,336.18,149,318.18" style="stroke:#FFAF37;stroke-width:2.0;"/></g><!--SRC=[XPJBRjim44Nt-We2sHanO2Tf71VT90QAPXCKJNT58Op8aKr8uYX3ogxw-FUIKftgPMSbOExHp9rBIZkjK61HkbeKM2J8DhAPDYKm5EAUcGuRoed5HPf2UhqQYX_9k3U19oXGVC9yZqvB619VTrfc1gqLLntf0MIsPQgCQjix1cEzXCPrg4qErjuxnpgf77RCg7LobwP3SjZqubejLxSumeWLyZzaiLYevNg8l3dgxDwlnBF-YMBP3Us978viZaOqr5cNWUYO72rwr4zw_0nAQRCLxpgrBwqdDiYz-lCE51q2dK9kksEiGqPoTOcRqLQulbFfQX9-F0L7CaGdu63Zn2DL6U-Xoftu5SrctK8CR6QpzxubUrj3qVYbUwfa1AV9n0fSeuIdqmKUDUAOyQL2wsAjUg-YaLoNpSiPrgEvESbigckeOzCf8SeHZAyLyCDFSVwAjrPg6tHjtErDKBKvevegVBmnfPwHj4UkuvAys8FQxKlAjQmRFrg6Pi3rjzRmfG1JVu_-T69cj5Inn2RY_dP7h8zisrKhRX8DbR3oCDI9sY1OVotw1J_BdwkK_bSncD0eLVaQyt-bc9WpEdq7MtiYZlOP4kbbyU7tV3uVtS9eGZ-Mehy0]--></g></svg>

<svg xmlns="http://www.w3.org/2000/svg" width="298" height="977" viewBox="0 0 298 977"><rect width="284" height="337.055" x="7" y="633.85" fill="#3D176E" rx="2.5" ry="2.5" style="stroke:#000d19;stroke-width:.5"/><circle cx="63.25" cy="653.745" r="11" fill="#ADD1B2" style="stroke:#181818;stroke-width:1"/><path d="M66.219 659.385q-.578.297-1.219.438-.64.156-1.344.156-2.5 0-3.828-1.64-1.312-1.657-1.312-4.782t1.312-4.781q1.328-1.656 3.828-1.656.703 0 1.344.156.656.156 1.219.453v2.719q-.625-.578-1.219-.844-.594-.281-1.219-.281-1.343 0-2.031 1.078-.687 1.062-.687 3.156t.687 3.172q.688 1.062 2.031 1.062.625 0 1.219-.265.594-.281 1.219-.86z"/><text x="88.75" y="659.63" fill="#D9B8FF" font-family="Helvetica" font-size="17" textLength="153">aws_backup_vault</text><path d="M8 673.639h282" style="stroke:#000d19;stroke-width:.5"/><text x="18" y="695.634" fill="#D9B8FF" font-family="sans-serif" font-size="14" font-weight="bold" textLength="135">backup_vault_arn</text><text x="153" y="695.634" fill="#D9B8FF" font-family="sans-serif" font-size="14" textLength="48">: string</text><text x="18" y="721.931" fill="#D9B8FF" font-family="sans-serif" font-size="14" font-weight="bold" textLength="152">backup_vault_name</text><text x="170" y="721.931" fill="#D9B8FF" font-family="sans-serif" font-size="14" textLength="48">: string</text><text x="18" y="748.228" fill="#D9B8FF" font-family="sans-serif" font-size="14" font-weight="bold" textLength="107">creation_date</text><text x="125" y="748.228" fill="#D9B8FF" font-family="sans-serif" font-size="14" textLength="70">: datetime</text><text x="18" y="774.525" fill="#D9B8FF" font-family="sans-serif" font-size="14" font-weight="bold" textLength="148">creator_request_id</text><text x="166" y="774.525" fill="#D9B8FF" font-family="sans-serif" font-size="14" textLength="48">: string</text><text x="18" y="800.822" fill="#D9B8FF" font-family="sans-serif" font-size="14" font-weight="bold" textLength="153">encryption_key_arn</text><text x="171" y="800.822" fill="#D9B8FF" font-family="sans-serif" font-size="14" textLength="48">: string</text><text x="18" y="827.119" fill="#D9B8FF" font-family="sans-serif" font-size="14" font-weight="bold" textLength="74">lock_date</text><text x="92" y="827.119" fill="#D9B8FF" font-family="sans-serif" font-size="14" textLength="70">: datetime</text><text x="18" y="853.415" fill="#D9B8FF" font-family="sans-serif" font-size="14" font-weight="bold" textLength="52">locked</text><text x="70" y="853.415" fill="#D9B8FF" font-family="sans-serif" font-size="14" textLength="65">: boolean</text><text x="18" y="879.712" fill="#D9B8FF" font-family="sans-serif" font-size="14" font-weight="bold" textLength="156">max_retention_days</text><text x="174" y="879.712" fill="#D9B8FF" font-family="sans-serif" font-size="14" textLength="44">: int64</text><text x="18" y="906.009" fill="#D9B8FF" font-family="sans-serif" font-size="14" font-weight="bold" textLength="152">min_retention_days</text><text x="170" y="906.009" fill="#D9B8FF" font-family="sans-serif" font-size="14" textLength="44">: int64</text><text x="18" y="932.306" fill="#D9B8FF" font-family="sans-serif" font-size="14" font-weight="bold" textLength="218">number_of_recovery_points</text><text x="236" y="932.306" fill="#D9B8FF" font-family="sans-serif" font-size="14" textLength="44">: int64</text><text x="18" y="958.603" fill="#D9B8FF" font-family="sans-serif" font-size="14" font-weight="bold" textLength="91">vault_policy</text><text x="109" y="958.603" fill="#D9B8FF" font-family="sans-serif" font-size="14" textLength="156">: dictionary[string, any]</text><rect width="155" height="74.086" x="71.5" y="438.76" fill="#3D176E" rx="2.5" ry="2.5" style="stroke:#000d19;stroke-width:.5"/><circle cx="86.5" cy="458.654" r="11" fill="#ADD1B2" style="stroke:#181818;stroke-width:1"/><path d="M89.469 464.295q-.578.297-1.219.438-.64.156-1.344.156-2.5 0-3.828-1.64-1.312-1.657-1.312-4.782t1.312-4.781q1.328-1.656 3.828-1.656.703 0 1.344.156.656.156 1.219.453v2.719q-.625-.579-1.219-.844-.594-.281-1.219-.281-1.344 0-2.031 1.078-.687 1.062-.687 3.156t.687 3.172q.688 1.062 2.031 1.062.625 0 1.219-.265.594-.281 1.219-.86z"/><text x="105.5" y="464.54" fill="#D9B8FF" font-family="Helvetica" font-size="17" textLength="113">aws_resource</text><path d="M72.5 478.549h153" style="stroke:#000d19;stroke-width:.5"/><text x="82.5" y="500.544" fill="#D9B8FF" font-family="sans-serif" font-size="14" font-weight="bold" textLength="26">arn</text><text x="108.5" y="500.544" fill="#D9B8FF" font-family="sans-serif" font-size="14" textLength="48">: string</text><rect width="227" height="310.758" x="35.5" y="7" fill="#3D176E" rx="2.5" ry="2.5" style="stroke:#000d19;stroke-width:.5"/><circle cx="104.25" cy="26.895" r="11" fill="#ADD1B2" style="stroke:#181818;stroke-width:1"/><path d="M107.219 32.535q-.578.297-1.219.438-.64.156-1.344.156-2.5 0-3.828-1.64-1.312-1.657-1.312-4.782t1.312-4.781q1.328-1.656 3.828-1.656.703 0 1.344.156.656.156 1.219.453v2.719q-.625-.578-1.219-.844-.594-.281-1.219-.281-1.344 0-2.031 1.078-.687 1.062-.687 3.156t.687 3.172q.688 1.062 2.031 1.062.625 0 1.219-.265.594-.281 1.219-.86z"/><text x="129.75" y="32.78" fill="#D9B8FF" font-family="Helvetica" font-size="17" textLength="71">resource</text><path d="M36.5 46.789h225" style="stroke:#000d19;stroke-width:.5"/><text x="46.5" y="68.784" fill="#D9B8FF" font-family="sans-serif" font-size="14" font-weight="bold" textLength="29">age</text><text x="75.5" y="68.784" fill="#D9B8FF" font-family="sans-serif" font-size="14" textLength="66">: duration</text><text x="46.5" y="95.081" fill="#D9B8FF" font-family="sans-serif" font-size="14" font-weight="bold" textLength="43">atime</text><text x="89.5" y="95.081" fill="#D9B8FF" font-family="sans-serif" font-size="14" textLength="70">: datetime</text><text x="46.5" y="121.378" fill="#D9B8FF" font-family="sans-serif" font-size="14" font-weight="bold" textLength="43">ctime</text><text x="89.5" y="121.378" fill="#D9B8FF" font-family="sans-serif" font-size="14" textLength="70">: datetime</text><text x="46.5" y="147.675" fill="#D9B8FF" font-family="sans-serif" font-size="14" font-weight="bold" textLength="14">id</text><text x="60.5" y="147.675" fill="#D9B8FF" font-family="sans-serif" font-size="14" textLength="48">: string</text><text x="46.5" y="173.972" fill="#D9B8FF" font-family="sans-serif" font-size="14" font-weight="bold" textLength="33">kind</text><text x="79.5" y="173.972" fill="#D9B8FF" font-family="sans-serif" font-size="14" textLength="48">: string</text><text x="46.5" y="200.269" fill="#D9B8FF" font-family="sans-serif" font-size="14" font-weight="bold" textLength="90">last_access</text><text x="136.5" y="200.269" fill="#D9B8FF" font-family="sans-serif" font-size="14" textLength="66">: duration</text><text x="46.5" y="226.565" fill="#D9B8FF" font-family="sans-serif" font-size="14" font-weight="bold" textLength="90">last_update</text><text x="136.5" y="226.565" fill="#D9B8FF" font-family="sans-serif" font-size="14" textLength="66">: duration</text><text x="46.5" y="252.862" fill="#D9B8FF" font-family="sans-serif" font-size="14" font-weight="bold" textLength="48">mtime</text><text x="94.5" y="252.862" fill="#D9B8FF" font-family="sans-serif" font-size="14" textLength="70">: datetime</text><text x="46.5" y="279.159" fill="#D9B8FF" font-family="sans-serif" font-size="14" font-weight="bold" textLength="43">name</text><text x="89.5" y="279.159" fill="#D9B8FF" font-family="sans-serif" font-size="14" textLength="48">: string</text><text x="46.5" y="305.456" fill="#D9B8FF" font-family="sans-serif" font-size="14" font-weight="bold" textLength="34">tags</text><text x="80.5" y="305.456" fill="#D9B8FF" font-family="sans-serif" font-size="14" textLength="171">: dictionary[string, string]</text><path fill="none" d="M149 531.09v102.53m0-120.53-6 18h12zm0-176.91v102.34m0-120.34-6 18h12z" style="stroke:#ffaf37;stroke-width:2"/></svg>
